X:0882
T:Miss Carnagie's Hornpipe.
M:6/4
L:1/4
Q:3/4=96
I: :: ||
Z:Jack Campin * www.campin.me.uk * 2009
K:G
gG GA    B   d|cA A   B    ce|dG GA   B   d   |eg f/g/a/f/ g2:|
Bd dg {e}d{c}B|cA A/B/A/G/ FD|Bd dg{e}d{c}B   |cA A   F    G2 |
Bd dg {e}d{c}B|cA A/B/A/G/ FD|Bd eg   f/g/a/f/|gG B/A/G/F/ G2|]

